icons/rest-time-fill.svg

<svg xmlns="http://www.w3.org/2000/svg" width="24" height="24" fill="none"><g clip-path="url(#a)"><g><path fill="#121212" d="M11 6V14H19C19 18.418 15.418 22 11 22C6.582 22 3 18.418 3 14C3 9.665 6.58 6 11 6ZM21 2V4L15.673 10H21V12H13V10L18.326 4H13V2H21Z"/></g></g><defs><clipPath id="a"><rect width="24" height="24" fill="white"/></clipPath></defs></svg>

<svg width="24" height="24" fill="none" xmlns="http://www.w3.org/2000/svg"><g clip-path="url(#a)"><path d="M11 6v8h8a8 8 0 0 1-16 0c0-4.335 3.58-8 8-8Zm10-4v2l-5.327 6H21v2h-8v-2l5.326-6H13V2h8Z" /></g><defs><clipPath id="a"><path fill="#fff" d="M0 0h24v24H0z"/></clipPath></defs></svg>
